src/android-checkmark-circle.svg

<?xml version="1.0" encoding="utf-8"?>
<!-- Generated by IcoMoon.io -->
<!DOCTYPE svg PUBLIC "-//W3C//DTD SVG 1.1//EN" "http://www.w3.org/Graphics/SVG/1.1/DTD/svg11.dtd">
<svg version="1.1" xmlns="http://www.w3.org/2000/svg" xmlns:xlink="http://www.w3.org/1999/xlink" width="512" height="512" viewBox="0 0 512 512">
<path fill="#000000" d="M170.718 216.482l-29.118 29.118 93.6 93.6 208-208-29.118-29.118-178.882 177.836-64.482-63.436zM422.4 256c0 91.518-74.883 166.4-166.4 166.4s-166.4-74.882-166.4-166.4 74.882-166.4 166.4-166.4c15.6 0 31.2 2.082 45.764 6.241l32.236-32.241c-23.918-10.4-49.918-15.6-78-15.6-114.4 0-208 93.6-208 208s93.6 208 208 208 208-93.6 208-208h-41.6z"></path>
</svg>

<?xml version="1.0" encoding="utf-8"?>
<!-- Generator: Adobe Illustrator 16.2.1, SVG Export Plug-In . SVG Version: 6.00 Build 0)  -->
<!DOCTYPE svg PUBLIC "-//W3C//DTD SVG 1.1//EN" "http://www.w3.org/Graphics/SVG/1.1/DTD/svg11.dtd">
<svg version="1.1" id="Layer_1" xmlns="http://www.w3.org/2000/svg" xmlns:xlink="http://www.w3.org/1999/xlink" x="0px" y="0px"
	 width="512px" height="512px" viewBox="0 0 512 512" enable-background="new 0 0 512 512" xml:space="preserve">
<path d="M170.718,216.482L141.6,245.6L235.2,339.2l208-208l-29.118-29.118L235.2,279.918L170.718,216.482z M422.4,256
	c0,91.518-74.883,166.4-166.4,166.4S89.6,347.518,89.6,256S164.482,89.6,256,89.6c15.6,0,31.2,2.082,45.764,6.241L334,63.6
	C310.082,53.2,284.082,48,256,48C141.6,48,48,141.6,48,256s93.6,208,208,208s208-93.6,208-208H422.4z"/>
</svg>
